icons/desktop/12/svg/audio-12.svg

<svg width="12" height="12" viewBox="0 0 12 12" fill="none" xmlns="http://www.w3.org/2000/svg">
<g clip-path="url(#clip0_8069_32468)">
<path d="M8.12988 0.782959C8.22176 0.782959 8.28793 0.804664 8.3877 0.840576C10.4936 1.61155 11.9989 3.62684 11.999 5.99976C11.999 8.37276 10.4937 10.3879 8.3877 11.1589C8.4477 11.1319 8.29291 11.2175 8.12891 11.2175C7.78096 11.2175 7.49902 10.9356 7.49902 10.5876C7.49917 10.2928 7.70205 10.0469 7.97559 9.97827L7.9502 9.98218C9.57915 9.38816 10.749 7.82873 10.749 5.99976C10.7489 4.17087 9.58291 2.61724 7.95801 2.02124C7.67701 1.89024 7.5 1.76084 7.5 1.41284C7.50006 1.06494 7.78199 0.783035 8.12988 0.782959Z" fill="black"/>
<path d="M3.67188 1.6189C4.31685 0.520116 5.99967 0.97803 6 2.25171V9.74683C6 11.0208 4.31687 11.4786 3.67188 10.3796L2.41309 8.23511C2.32109 8.23811 2.21002 8.24878 2.12402 8.24878C1.77302 8.24878 1.44177 8.23093 1.13477 8.20093C0.489888 8.13781 0 7.6008 0 6.95288V5.0437C0.000191471 4.41299 0.469975 3.86666 1.09766 3.80249C1.47566 3.76449 1.82002 3.74976 2.12402 3.74976C2.22501 3.74976 2.31902 3.75652 2.41602 3.75952L3.67188 1.6189Z" fill="black"/>
<path d="M7.5 3.57397C7.50001 3.39417 7.68872 3.26205 7.84961 3.34253C8.82554 3.8345 9.49991 4.83186 9.5 5.99976C9.5 7.16776 8.82561 8.16498 7.84961 8.65698C7.68967 8.73766 7.5 8.60542 7.5 8.42554V3.57397Z" fill="black"/>
</g>
<defs>
<clipPath id="clip0_8069_32468">
<rect width="12" height="12" fill="white"/>
</clipPath>
</defs>
</svg>

<!-- This Source Code Form is subject to the terms of the Mozilla Public
   - License, v. 2.0. If a copy of the MPL was not distributed with this
   - file, You can obtain one at http://mozilla.org/MPL/2.0/. -->
<svg xmlns="http://www.w3.org/2000/svg" width="12" height="12" fill="context-fill" fill-opacity="context-fill-opacity" viewBox="0 0 12 12">
    <path d="M8.13.783c.092 0 .158.022.258.058A5.495 5.495 0 0 1 11.999 6a5.495 5.495 0 0 1-3.611 5.159c.06-.027-.095.058-.26.058a.63.63 0 0 1-.152-1.239l-.026.004A4.25 4.25 0 0 0 10.75 6 4.24 4.24 0 0 0 7.958 2.02c-.281-.13-.458-.26-.458-.608a.63.63 0 0 1 .63-.63M3.672 1.619C4.317.52 6 .978 6 2.252v7.495c0 1.274-1.683 1.732-2.328.633L2.413 8.235c-.092.003-.203.014-.289.014q-.527-.002-.99-.048A1.253 1.253 0 0 1 0 6.953v-1.91c0-.63.47-1.176 1.098-1.24.378-.039.722-.053 1.026-.053.101 0 .195.007.292.01z" />
    <path d="M7.5 3.574c0-.18.189-.312.35-.231A2.97 2.97 0 0 1 9.5 6a2.97 2.97 0 0 1-1.65 2.657c-.16.08-.35-.052-.35-.231z" />
</svg>
